resources/svg/eye-off-line.svg

<svg fill="currentColor" viewBox="0 0 24 24" xmlns="http://www.w3.org/2000/svg"><path d="M17.8827 19.2968C16.1814 20.3755 14.1638 21.0002 12.0003 21.0002C6.60812 21.0002 2.12215 17.1204 1.18164 12.0002C1.61832 9.62282 2.81932 7.5129 4.52047 5.93457L1.39366 2.80777L2.80788 1.39355L22.6069 21.1925L21.1927 22.6068L17.8827 19.2968ZM5.9356 7.3497C4.60673 8.56015 3.6378 10.1672 3.22278 12.0002C4.14022 16.0521 7.7646 19.0002 12.0003 19.0002C13.5997 19.0002 15.112 18.5798 16.4243 17.8384L14.396 15.8101C13.7023 16.2472 12.8808 16.5002 12.0003 16.5002C9.51498 16.5002 7.50026 14.4854 7.50026 12.0002C7.50026 11.1196 7.75317 10.2981 8.19031 9.60442L5.9356 7.3497ZM12.9139 14.328L9.67246 11.0866C9.5613 11.3696 9.50026 11.6777 9.50026 12.0002C9.50026 13.3809 10.6196 14.5002 12.0003 14.5002C12.3227 14.5002 12.6309 14.4391 12.9139 14.328ZM20.8068 16.5925L19.376 15.1617C20.0319 14.2268 20.5154 13.1586 20.7777 12.0002C19.8603 7.94818 16.2359 5.00016 12.0003 5.00016C11.1544 5.00016 10.3329 5.11773 9.55249 5.33818L7.97446 3.76015C9.22127 3.26959 10.5793 3.00016 12.0003 3.00016C17.3924 3.00016 21.8784 6.87992 22.8189 12.0002C22.5067 13.6998 21.8038 15.2628 20.8068 16.5925ZM11.7229 7.50857C11.8146 7.50299 11.9071 7.50016 12.0003 7.50016C14.4855 7.50016 16.5003 9.51488 16.5003 12.0002C16.5003 12.0933 16.4974 12.1858 16.4919 12.2775L11.7229 7.50857Z"/></svg>

<svg xmlns="http://www.w3.org/2000/svg" viewBox="0 0 24 24" fill="currentColor">
    <g>
        <path fill="none" d="M0 0h24v24H0z"/>
        <path d="M17.882 19.297A10.949 10.949 0 0 1 12 21c-5.392 0-9.878-3.88-10.819-9a10.982 10.982 0 0 1 3.34-6.066L1.392 2.808l1.415-1.415 19.799 19.8-1.415 1.414-3.31-3.31zM5.935 7.35A8.965 8.965 0 0 0 3.223 12a9.005 9.005 0 0 0 13.201 5.838l-2.028-2.028A4.5 4.5 0 0 1 8.19 9.604L5.935 7.35zm6.979 6.978l-3.242-3.242a2.5 2.5 0 0 0 3.241 3.241zm7.893 2.264l-1.431-1.43A8.935 8.935 0 0 0 20.777 12 9.005 9.005 0 0 0 9.552 5.338L7.974 3.76C9.221 3.27 10.58 3 12 3c5.392 0 9.878 3.88 10.819 9a10.947 10.947 0 0 1-2.012 4.592zm-9.084-9.084a4.5 4.5 0 0 1 4.769 4.769l-4.77-4.769z"/>
    </g>
</svg>
